X:1
T:Title
%%score ( 1 2 ) { 3 | 4 }
L:1/8
Q:1/4=130
M:3/4
K:A
V:1 treble nm="Grand Piano, Soprano"
V:2 treble 
V:3 bass nm="Choir Pad, Stark, 87.87 D"
V:4 bass 
V:1
 [EA]4 [DG]2 | [CA]4 E2 | D2- [DG]2 [DB]2 | [CA]4 [CE]2 | E2 A2 [EG]2 | [EG]2 [DF]2 [EF]2 | %6
w: By~Edward~Josef~Stark~(1863\-1918) *||||||
 ^D2- [DG]2 [FA]2 | [EG]6 | [CA]4 [DG]2 | [EA]4 [CE]2 | D2- [DG]2 [DB]2 | [CA]4 [CE]2 | %12
w: ||||||
 [EA]4 [EG]2 | F2 c2 [FB]2 | A2 G2 [DB]2 | [CA]4 z2 | [EA]4 [EB]2 | [Ec]4 [Ec]2 | c2 d2 [Ec]2 | %19
w: |||||||
 [DB]4 [CA]2 | [CA]4 [^EG]2 | [FA]4 [FA]2 | [FB]4 [FB]2 | [^Ec]6 | [EA]4 [EG]2 | [EA]4 E2 | %26
w: |||||||
 D2- [DG]2 [DB]2 | [CA]4 [CE]2 | E2 A2 [^EG]2 | F4 [FB]2 | [EA]4 [EG]2 | [EA]6- | [EA]2 z2 z2 |] %33
w: |||||||
V:2
 x6 | x6 | F2 z2 z2 | x6 | x6 | x6 | F2 z2 z2 | x6 | x6 | x6 | F2 z2 z2 | x6 | x6 | x6 | E4 z2 | %15
 x6 | x6 | x6 | E4 z2 | x6 | x6 | x6 | x6 | x6 | x6 | x6 | F2 z2 z2 | x6 | x6 | x6 | x6 | x6 | %32
 x6 |] %33
V:3
 C4 B,2 | A,4 A,2 | A,2 D2 G,2 | A,4 A,2 | A,4 A,2 | A,4 ^A,2 | B,4 B,2 | B,6 | A,4 B,2 | A,4 A,2 | %10
 A,2 D2 G,2 | A,4 A,2 | A,4 A,2 | A,2 ^A,2 B,2 | C2 B,2 G,2 | A,4 z2 | A,4 G,2 | A,4 A,2 | %18
 A,2 B,2 A,2 | G,4 A,2 | A,4[K:treble] C2 | C4 C2 | B,2 A,2[K:bass] G,2 | G,6 | A,4 D2 | C4 A,2 | %26
 A,2 D2 G,2 | A,4 A,2 | A,4 B,2 | B,4[K:treble] D2 | C4 B,2 | C6- | C2 z2 z2 |] %33
V:4
 A,4 E,2 | F,4 C,2 | D,2 B,,2 E,2 | A,,4 A,,2 | C,4 C,2 | D,4 C,2 | B,,4 ^D,2 | E,6 | F,4 E,2 | %9
 C,4 A,,2 | D,2 B,,2 E,2 | A,,4 A,,2 | C,4 C,2 | D,4 D,2 | E,4 E,2 | A,,4 z2 | C,4 E,2 | z6 | %18
 z2 G,2 z2 | E,4 F,2 | F,4 C,2 | F,4 F,2 | D,4 D,2 | C,6 | C,4 B,,2 | A,,4 C,2 | D,2 B,,2 E,2 | %27
 A,,4 A,,2 | C,4 C,2 | D,4 D,2 | E,4 E,2 | A,6- | A,2 z2 z2 |] %33

